icons/src/arrow.backward.svg

<!--Generator: Apple Native CoreSVG 341-->
<!DOCTYPE svg  PUBLIC '-//W3C//DTD SVG 1.1//EN'  'http://www.w3.org/Graphics/SVG/1.1/DTD/svg11.dtd'>
<svg version="1.1" viewBox="0 0 18.496 14.814" xmlns="http://www.w3.org/2000/svg">
 <rect width="18.496" height="14.814" opacity="0"/>
 <path d="m7.4219 14.805c0.47851 0 0.85937-0.3516 0.85937-0.8399 0-0.2343-0.08789-0.4687-0.24414-0.6152l-2.1875-2.2266-4.0723-3.7207 4.0723-3.7207 2.1875-2.2266c0.15625-0.15625 0.24414-0.38086 0.24414-0.61524 0-0.48828-0.38086-0.83984-0.85937-0.83984-0.23438 0-0.43946 0.078125-0.6543 0.29297l-6.4648 6.4551c-0.19531 0.18554-0.30273 0.41015-0.30273 0.65429s0.10742 0.46875 0.30273 0.6543l6.4844 6.4746c0.19531 0.1856 0.40039 0.2735 0.63477 0.2735zm-2.5-6.5332h12.354c0.5078 0 0.8594-0.36132 0.8594-0.86914 0-0.50781-0.3516-0.86914-0.8594-0.86914h-12.354l-3.1445 0.19532c-0.40039 0-0.67382 0.27343-0.67382 0.67382s0.27343 0.67383 0.67382 0.67383z" fill="#fff"/>
</svg>

<?xml version="1.0" encoding="UTF-8"?>
<!--Generator: Apple Native CoreSVG 341-->
<!DOCTYPE svg
PUBLIC "-//W3C//DTD SVG 1.1//EN"
       "http://www.w3.org/Graphics/SVG/1.1/DTD/svg11.dtd">
<svg version="1.1" xmlns="http://www.w3.org/2000/svg" xmlns:xlink="http://www.w3.org/1999/xlink" viewBox="0 0 18.4961 14.8145">
 <g>
  <rect height="14.8145" opacity="0" width="18.4961" x="0" y="0"/>
  <path d="M7.42188 14.8047C7.90039 14.8047 8.28125 14.4531 8.28125 13.9648C8.28125 13.7305 8.19336 13.4961 8.03711 13.3496L5.84961 11.123L1.77734 7.40234L5.84961 3.68164L8.03711 1.45508C8.19336 1.29883 8.28125 1.07422 8.28125 0.839844C8.28125 0.351562 7.90039 0 7.42188 0C7.1875 0 6.98242 0.078125 6.76758 0.292969L0.302734 6.74805C0.107422 6.93359 0 7.1582 0 7.40234C0 7.64648 0.107422 7.87109 0.302734 8.05664L6.78711 14.5312C6.98242 14.7168 7.1875 14.8047 7.42188 14.8047ZM4.92188 8.27148L17.2754 8.27148C17.7832 8.27148 18.1348 7.91016 18.1348 7.40234C18.1348 6.89453 17.7832 6.5332 17.2754 6.5332L4.92188 6.5332L1.77734 6.72852C1.37695 6.72852 1.10352 7.00195 1.10352 7.40234C1.10352 7.80273 1.37695 8.07617 1.77734 8.07617Z" fill="white"/>
 </g>
</svg>
